X:1
T:Title
C:Composer
L:1/4
M:4/4
I:linebreak $
K:C
e e f g | g f e d | c c d e | e3/2 d/ d2 | e e f g | g f e d | c c d e | d3/2 c/ c2 | d d e c | 
 d e/f/ e c | d e/f/ e d | c d G e- | e e f g | g f e d | c c d e | d3/2 c/ c2 |] 
